build/category/InvalidSolid.svg

<svg xmlns="http://www.w3.org/2000/svg" fill="none" viewBox="0 0 24 24" focusable="false"><path d="M0 0H24V24H0z"/><path fill="#74767B" fill-rule="evenodd" d="M11 2C10.1046 2 9.40868 2.84364 9.50978 3.80655L9.59782 4.64508C9.67886 5.41693 10.2823 6 11 6C11.7177 6 12.3211 5.41693 12.4022 4.64508L12.4902 3.80655C12.5913 2.84364 11.8954 2 11 2ZM9 9C9 7.89543 9.89543 7 11 7C12.1046 7 13 7.89543 13 9L13 11L15.2589 11C15.6179 11 15.9089 11.291 15.9089 11.65C15.9089 12.009 15.6179 12.3 15.2589 12.3L13.0513 12.3C13.8401 12.9677 14.4383 13.8535 14.7527 14.8644L16.4564 15.1838C17.1833 15.32 17.7705 15.8558 17.9727 16.5672L18.9329 19.9449C19.031 20.2902 18.8307 20.6497 18.4854 20.7479C18.1401 20.846 17.7806 20.6457 17.6824 20.3004L16.7223 16.9227C16.6549 16.6855 16.4591 16.5069 16.2168 16.4615L14.9936 16.2322C14.9978 16.3209 15 16.4102 15 16.5C15 19.5376 12.5376 22 9.5 22C6.46243 22 4 19.5376 4 16.5C4 14.5782 4.98564 12.8867 6.47898 11.9032C6.09888 11.6146 5.82571 11.1879 5.73766 10.6888L5.30924 8.26064C5.24686 7.90712 5.48289 7.56997 5.83641 7.50759C6.18994 7.44522 6.52709 7.68124 6.58947 8.03477L7.01788 10.463C7.07269 10.7736 7.34258 11 7.658 11L9 11L9 9ZM9.49999 12.3C11.8196 12.3 13.7 14.1805 13.7 16.5C13.7 18.8196 11.8196 20.7001 9.49999 20.7001C7.18039 20.7001 5.29999 18.8196 5.29999 16.5C5.29999 14.1805 7.18039 12.3 9.49999 12.3Z"/></svg>

<svg xmlns="http://www.w3.org/2000/svg" fill="none" viewBox="0 0 24 24" focusable="false"><path fill="#74767B" fill-rule="evenodd" d="M11 2c-.9 0-1.6.84-1.5 1.8l.09.84C9.67 5.41 10.28 6 11 6c.71 0 1.32-.59 1.4-1.36l.09-.84c.1-.96-.6-1.8-1.49-1.8M9 9c0-1.11.89-2 2-2a2 2 0 0 1 2 2v2h2.25c.36 0 .65.29.65.65 0 .35-.29.65-.65.65h-2.2c.78.66 1.38 1.55 1.7 2.56l1.7.32c.73.14 1.32.67 1.52 1.38l.96 3.38c.1.35-.1.7-.45.8-.34.1-.7-.1-.8-.44l-.96-3.38a.65.65 0 0 0-.51-.46l-1.22-.23c0 .09.01.18.01.27 0 3.03-2.47 5.5-5.5 5.5C6.46 22 4 19.53 4 16.5c0-1.93.98-3.62 2.47-4.6-.38-.29-.65-.72-.74-1.22L5.3 8.26c-.06-.36.18-.7.53-.76s.69.18.75.53l.43 2.43c.06.31.33.54.64.54H9zm.5 3.3c2.31 0 4.2 1.88 4.2 4.2 0 2.31-1.89 4.2-4.2 4.2-2.32 0-4.21-1.89-4.21-4.2 0-2.32 1.89-4.2 4.21-4.2"/></svg>
